X:1
T:Title
%%score { ( 1 3 ) | ( 2 4 ) }
L:1/8
Q:1/4=106
M:4/4
K:Bb
V:1 treble nm="Grand Piano"
V:3 treble 
V:2 bass 
V:4 bass 
V:1
 [Fd]3 [Ec] [DB]2 [FB]2 | .c2 z2 z4 | z4 z2 .B2 | [Fd]2 [=Ed]2 [Fc]4 | [Fd]3 [Ec] [DB]2 [FB]2 | %5
w: P.~G.~Fithian * * *|||||
 .c2 z2 z4 | GAF-[Fc] d2 [_Af][Ge] | z2 c2 z4 | [^Fd]2 [Fd]2 [Fd]3 [Ac] | %9
w: ||||
 [GB]2 [^FA]2 [GB]2 [DG]2 | z4 z2 .[Ac]2 | [CFA]2 [B,=EG]2 [A,CF]4 | [Fd]3 [Ec] [DB]2 [FB]2 | %13
w: ||||
 .c2 z2 z4 | GAF-[Fc] d2 [_Af][Ge] | z2 c2 z4 |] %16
w: |||
V:2
 [B,,B,]3 [B,,B,] [B,,B,]2 [D,B,]2 | [E,B,]2 [E,B,]2 [B,,B,]2 [B,,F,B,]2 | %2
 [F,A,]2 [F,B,F]2 [E,C]2 [D,B,][C,A,] | [B,,B,]2 [C,B,]2 [F,A,]4 | %4
 [B,,B,]3 [B,,B,] [B,,B,]2 [D,B,]2 | [E,B,]2 [E,B,]2 [B,,B,]2 [B,,B,]2 | .[B,E]2 z2 z2 B,2 | %7
 [F,B,F]2 .[F,A,F]2 [B,,B,]4 | [D,A,]2 [D,A,]2 [D,A,]3 [D,D] | [D,D]2 [D,D]2 [G,D]2 [G,B,]2 | %10
 [C,G,]2 =E,2 F,2 z G | C,2 C,2 F,4 | [B,,B,]3 [B,,B,] [B,,B,]2 [D,B,]2 | %13
 [E,B,]2 [E,B,]2 [B,,B,]2 [B,,B,]2 | [B,E][CF][D,B,][F,A,] [B,F]2 B,-[E,B,] | %15
 [F,B,F]2 .[F,A,F]2 [B,,B,]4 |] %16
V:3
 x8 | G-[GB][FA][EG] [DF]2 D2 | F2 G2 [FA]2 F-[Fc] | x8 | x8 | G-[GB][FA][EG] [DF]2 D2 | %6
 z2 .B2 z4 | d2 z E [DB]4 | x8 | x8 | [=Ec]2 [CGB]2 [CFA]2 D-[DB] | x8 | x8 | %13
 G-[GB][FA][EG] [DF]2 D2 | z2 .B2 z4 | d2 z E [DB]4 |] %16
V:4
 x8 | x8 | x8 | x8 | x8 | x8 | E,-[E,CF][D,B,][F,A,] [B,F]2 D,E, | x8 | x8 | x8 | z4 z2 B,,2 | x8 | %12
 x8 | x8 | E,2 z2 z2 .D,2 | x8 |] %16

